!!!!SEGMENT: Snf0253-Usquequo_Domine.krn
!!!id: Snf0253
!!!AGN: Motet
!!!voices: 4
!!!COM: Ludwig Senfl
!!!OTL: Usquequo, Domine
**kern	**text	**kern	**text	**kern	**text	**kern	**text
*part4	*part4	*part3	*part3	*part2	*part2	*part1	*part1
*staff4	*staff4	*staff3	*staff3	*staff2	*staff2	*staff1	*staff1
*I"Bassus	*	*I"Tenor	*	*I"Altus	*	*I"Superius	*
*I'B	*	*I'T	*	*I'A	*	*I'S	*
*clefF4	*	*clefGv2	*	*clefGv2	*	*clefG2	*
*	*	*	*	*	*	*	*
*k[]	*	*k[]	*	*k[]	*	*k[]	*
*	*	*	*	*	*	*	*
*M2/1	*	*M2/1	*	*M2/1	*	*M2/1	*
*met(C|)	*	*met(C|)	*	*met(C|)	*	*met(C|)	*
!!section: Prima pars: Usquequo, Domine
!!!OMD: Prima pars: Usquequo, Domine
=1	=1	=1	=1	=1	=1	=1	=1
0r	.	0r	.	0r	.	0e	Us-
=2	=2	=2	=2	=2	=2	=2	=2
0r	.	0r	.	0r	.	1d	-que-
.	.	.	.	.	.	[1d	-quo,
=3	=3	=3	=3	=3	=3	=3	=3
0r	.	0r	.	0B	Us-	1d]	.
.	.	.	.	.	.	1g	Do-
=4	=4	=4	=4	=4	=4	=4	=4
0r	.	0r	.	1A	-que-	2c	-mi-
.	.	.	.	.	.	1c	-ne,
.	.	.	.	[1A	-quo,	.	.
.	.	.	.	.	.	[2cc	.
=5	=5	=5	=5	=5	=5	=5	=5
0r	.	0r	.	1A]	.	4cc]	.
.	.	.	.	.	.	4b	.
.	.	.	.	.	.	4a	.
.	.	.	.	.	.	4g	.
.	.	.	.	1d	Do-	1a	.
=6	=6	=6	=6	=6	=6	=6	=6
0r	.	0E	Us-	2G	-mi-	1b	.
.	.	.	.	2.G	-ne,	.	.
.	.	.	.	.	.	2r	.
.	.	.	.	4A	.	.	.
.	.	.	.	4B	.	[2b	us-
.	.	.	.	4c	.	.	.
=7	=7	=7	=7	=7	=7	=7	=7
0r	.	1D	-que-	4d	.	2b]	.
.	.	.	.	4e	.	.	.
.	.	.	.	2.f	.	2a	-que-
.	.	[1D	-quo,	.	.	2a	-quo,
.	.	.	.	4e	.	.	.
.	.	.	.	4d	.	2dd	Do-
.	.	.	.	4c	.	.	.
=8	=8	=8	=8	=8	=8	=8	=8
0BB	Us-	1D]	.	4d	.	2g	-mi-
.	.	.	.	4c	.	.	.
.	.	.	.	4B	.	2.g	-ne,
.	.	.	.	4A	.	.	.
.	.	1G	Do-	1B	.	.	.
.	.	.	.	.	.	4a	.
.	.	.	.	.	.	4b	.
.	.	.	.	.	.	8aL	.
.	.	.	.	.	.	8bJ	.
=9	=9	=9	=9	=9	=9	=9	=9
1AA	-que-	2C	-mi-	2r	.	2cc	.
.	.	1C	-ne,	2.c	Do-	2f	us-
[1AA	-quo,	.	.	.	.	2e	-que-
.	.	.	.	4B	.	.	.
.	.	[2c	.	4A	.	[2e	-quo,
.	.	.	.	4G	.	.	.
=10	=10	=10	=10	=10	=10	=10	=10
1AA]	.	4c]	.	4A	.	2e]	.
.	.	4B	.	4G	.	.	.
.	.	4A	.	4F	.	1a	Do-
.	.	4G	.	4E	.	.	.
1D	Do-	1A	.	1F	-mi-	.	.
.	.	.	.	.	.	[2d	-mi-
=11	=11	=11	=11	=11	=11	=11	=11
1GG	-mi-	1.B	ob-	1G	-ne,	2d]	.
.	.	.	.	.	.	1d	-ne,
1GG	-ne,	.	.	2r	.	.	.
.	.	2B	-li-	[2d	ob-	[2g	ob-
=12	=12	=12	=12	=12	=12	=12	=12
1.G	ob-	2B	-vi-	2d]	.	2g]	.
.	.	2B	-sce-	2d	-li-	2g	-li-
.	.	1B	-ris	2d	-vi-	2g	-vi-
2G	-li-	.	.	2d	-sce-	2g	-sce-
=13	=13	=13	=13	=13	=13	=13	=13
2G	-vi-	0B	me	2d	-ris	1g	-ris
2G	-sce-	.	.	1e	me	.	.
1G	-ris	.	.	.	.	1g	me
.	.	.	.	2B	in	.	.
=14	=14	=14	=14	=14	=14	=14	=14
1A	me	1r	.	1c	fi-	2r	.
.	.	.	.	.	.	2e	in
1E	in	1G	in	2B	.	1g	fi-
.	.	.	.	2e	.	.	.
=15	=15	=15	=15	=15	=15	=15	=15
0F	fi-	0A	fi-	2d	.	2f	.
.	.	.	.	1c	.	1e	.
.	.	.	.	4B	.	2d	.
.	.	.	.	4A	.	.	.
=16	=16	=16	=16	=16	=16	=16	=16
1E	-nem?	0B	-nem?	1G	-nem?	0e	-nem?
2r	.	.	.	1E	.	.	.
[2E	Us-	.	.	.	.	.	.
=17	=17	=17	=17	=17	=17	=17	=17
2E]	.	2r	.	0e	.	0r	.
2E	-que-	1B	Us-	.	.	.	.
1E	-quo	.	.	.	.	.	.
.	.	2B	-que-	.	.	.	.
=18	=18	=18	=18	=18	=18	=18	=18
2r	.	1B	-quo	0r	.	0r	.
2D	a-	.	.	.	.	.	.
[1F	-ver-	2r	.	.	.	.	.
.	.	2A	a-	.	.	.	.
=19	=19	=19	=19	=19	=19	=19	=19
2F]	.	1.c	-ver-	2r	.	1r	.
2E	.	.	.	1e	… fa-	.	.
1E	-tis­­ …	.	.	.	.	2r	.
.	.	2B	.	2e	-ci-	[2b	… fa-
=20	=20	=20	=20	=20	=20	=20	=20
0r	.	1B	-tis	1d	-em	2b]	.
.	.	.	.	.	.	2b	-ci-
.	.	1r	.	2r	.	1a	-em
.	.	.	.	[2d	tu-	.	.
=21	=21	=21	=21	=21	=21	=21	=21
0r	.	0r	.	4d]	.	2.a	tu-
.	.	.	.	4e	.	.	.
.	.	.	.	4f	.	.	.
.	.	.	.	4d	.	4b	.
.	.	.	.	4e	.	4cc	.
.	.	.	.	4f	.	4a	.
.	.	.	.	[2g	-am	4b	.
.	.	.	.	.	.	4cc	.
=22	=22	=22	=22	=22	=22	=22	=22
0r	.	0r	.	2g]	.	1dd	-am
.	.	.	.	2.G	a	.	.
.	.	.	.	.	.	2.d	a
.	.	.	.	4A	.	.	.
.	.	.	.	4B	.	.	.
.	.	.	.	4G	.	4e	.
=23	=23	=23	=23	=23	=23	=23	=23
0r	.	1r	.	4A	.	4f	.
.	.	.	.	4B	.	4d	.
.	.	.	.	4c	.	4e	.
.	.	.	.	4d	.	4f	.
.	.	2r	.	1e	.	4g	.
.	.	.	.	.	.	4a	.
.	.	[2G	… tu-	.	.	[2b	.
=24	=24	=24	=24	=24	=24	=24	=24
0r	.	2G]	.	2d	.	2b]	.
.	.	2C	-am	2c	.	1a	.
.	.	2D	a	1B	.	.	.
.	.	[2E	me?	.	.	2g#i	.
=25	=25	=25	=25	=25	=25	=25	=25
0AA	Quam-	2E]	.	2A	me?	1a	me?
.	.	1E	Quam-	2c	Quam-	.	.
.	.	.	.	1c	-di-	2r	.
.	.	[2E	-di-	.	.	2cc	Quam-
=26	=26	=26	=26	=26	=26	=26	=26
1AA	-di-	2E]	.	2A	-u	1cc	-di-
.	.	1E	-u	2.c	po-	.	.
1AA	-u	.	.	.	.	1a	-u
.	.	.	.	4B	.	.	.
.	.	[2F	po-	[2A	.	.	.
=27	=27	=27	=27	=27	=27	=27	=27
0BB-X	po-	4F]	.	2A]	.	0dd	po-
.	.	4E	.	.	.	.	.
.	.	4D	.	4G	.	.	.
.	.	4C	.	4F	.	.	.
.	.	2.D	.	1G	.	.	.
.	.	4E	.	.	.	.	.
=28	=28	=28	=28	=28	=28	=28	=28
1FF	-nam	1F	.	1A	-nam	1cc	-nam
1C	.	1E	-nam	2G	.	2r	.
.	.	.	.	2c	con-	2g	con-
=29	=29	=29	=29	=29	=29	=29	=29
1r	.	1r	.	2A	-si-	2a	-si-
.	.	.	.	2A	-li-	2a	-li-
1C	con-	1G	con-	1e	-a	1g	-a
=30	=30	=30	=30	=30	=30	=30	=30
1AA	-si-	1A	-si-	2f	.	0r	.
.	.	.	.	1e	.	.	.
1AA	-li-	1A	-li-	.	.	.	.
.	.	.	.	4d	.	.	.
.	.	.	.	4c	.	.	.
=31	=31	=31	=31	=31	=31	=31	=31
0E	-a	0G	-a	1B	.	1r	.
.	.	.	.	2r	.	2r	.
.	.	.	.	2e	in	2b	in
=32	=32	=32	=32	=32	=32	=32	=32
1r	.	1r	.	2c	a-	2cc	a-
.	.	.	.	2c	-ni-	2cc	-ni-
1E	in	1B	in	1g	-ma	1b	-ma
=33	=33	=33	=33	=33	=33	=33	=33
1C	a-	1c	a-	1r	.	2a	me-
.	.	.	.	.	.	1g	.
1C	-ni-	1c	-ni-	2.G	me-	.	.
.	.	.	.	.	.	4f	.
.	.	.	.	4A	.	4e	.
=34	=34	=34	=34	=34	=34	=34	=34
0G	-ma	4B	-ma	4B	.	1d	.
.	.	4A	.	4c	.	.	.
.	.	4G	.	1d	.	.	.
.	.	4F	.	.	.	.	.
.	.	1E	.	.	.	2.g	.
.	.	.	.	2c	.	.	.
.	.	.	.	.	.	4a	.
=35	=35	=35	=35	=35	=35	=35	=35
1.GG	me-	1D	me-	1d	-a,	4b	.
.	.	.	.	.	.	4cc	.
.	.	.	.	.	.	2dd	.
.	.	2E	.	2r	.	2g	.
2AA	.	2F	.	2c	me-	2cc	.
=36	=36	=36	=36	=36	=36	=36	=36
2BB	.	2D	.	2d	.	2b	.
2C	.	1G	.	2e	.	2g	.
1AA	.	.	.	1c	.	1a	.
.	.	2F	.	.	.	.	.
=37	=37	=37	=37	=37	=37	=37	=37
[0E	.	2.G	.	2B	.	1.b	-a,
.	.	.	.	2E	.	.	.
.	.	4A	.	.	.	.	.
.	.	[1B	.	4E	-a,	.	.
.	.	.	.	4F	.	.	.
.	.	.	.	4G	.	2e	do-
.	.	.	.	4A	.	.	.
=38	=38	=38	=38	=38	=38	=38	=38
1.E]	.	2B]	.	1B	.	4e	-lo-
.	.	.	.	.	.	4f	.
.	.	2E	.	.	.	4g	.
.	.	.	.	.	.	4a	.
.	.	1E	-a	2r	.	2b	.
2AA	.	.	.	2A	do-	[2cc	.
=39	=39	=39	=39	=39	=39	=39	=39
1AA	-a	0r	.	4A	-lo-	4cc]	.
.	.	.	.	4B	.	4b	.
.	.	.	.	4c	.	2a	.
.	.	.	.	4d	.	.	.
1r	.	.	.	2e	.	2g	.
.	.	.	.	[2f	.	2a	.
=40	=40	=40	=40	=40	=40	=40	=40
0r	.	0r	.	4f]	.	2d	-rem
.	.	.	.	4e	.	.	.
.	.	.	.	2d	.	2a	in
.	.	.	.	2c	.	2a	cor-
.	.	.	.	2d	.	2a	-de
=41	=41	=41	=41	=41	=41	=41	=41
0r	.	0r	.	2G	-rem	2.b	me-
.	.	.	.	2d	in	.	.
.	.	.	.	.	.	4a	.
.	.	.	.	2d	cor-	4b	.
.	.	.	.	.	.	4cc	.
.	.	.	.	2d	-de	2dd	.
=42	=42	=42	=42	=42	=42	=42	=42
0r	.	2r	.	1.e	me-	1g	-o
.	.	2E	… in	.	.	.	.
.	.	4E	cor-	.	.	2r	.
.	.	4F	.	.	.	.	.
.	.	4G	.	4d	.	[2b	per
.	.	4A	.	4c	.	.	.
=43	=43	=43	=43	=43	=43	=43	=43
2r	.	2B	.	2d	.	2b]	.
2AA	… per	2.c	.	2.e	.	2a	.
4AA	di-	.	.	.	.	1cc	.
4BB	.	4B	.	4d	.	.	.
4C	.	2A	.	4e	.	.	.
4D	.	.	.	4f	.	.	.
=44	=44	=44	=44	=44	=44	=44	=44
2E	.	2G	-de	2g	.	2b	.
2.F	.	2A	me-	2c	.	2.a	di-
.	.	2D	-o	1f	-o	.	.
4E	.	.	.	.	.	4g	.
2D	.	2A	per	.	.	4a	.
.	.	.	.	.	.	4b	.
=45	=45	=45	=45	=45	=45	=45	=45
2C	.	1A	di-	2e	per	2cc	.
2D	.	.	.	2.d	di-	2f	.
1GG	-em?	1B	-em?	.	.	1g	-em?
.	.	.	.	4c	.	.	.
.	.	.	.	4B	.	.	.
.	.	.	.	4A	.	.	.
=46	=46	=46	=46	=46	=46	=46	=46
0C	Us-	0c	Us-	1G	-em?	0e	Us-
.	.	.	.	2r	.	.	.
.	.	.	.	[2g	Us-	.	.
=47	=47	=47	=47	=47	=47	=47	=47
1C	-que-	1c	-que-	2g]	.	1e	-que-
.	.	.	.	2g	-que-	.	.
[1C	-quo	[1c	-quo	[1e	-quo	[1g	-quo
=48	=48	=48	=48	=48	=48	=48	=48
1C]	.	1c]	.	1e]	.	1g]	.
[1F	ex-	[1A	ex-	2r	.	[1a	ex-
.	.	.	.	[2c	ex-	.	.
=49	=49	=49	=49	=49	=49	=49	=49
1F]	.	1A]	.	2c]	.	1a]	.
.	.	.	.	1d	-al-	.	.
1G	-al-	1B	-al-	.	.	1g	-al-
.	.	.	.	[2e	-ta-	.	.
=50	=50	=50	=50	=50	=50	=50	=50
1A	-ta-	1c	-ta-	2e]	.	1cc	-ta-
.	.	.	.	1f	.	.	.
1A	-bi-	1c	-bi-	.	.	1a	-bi-
.	.	.	.	2e	-bi-	.	.
=51	=51	=51	=51	=51	=51	=51	=51
0D	-tur	0d	-tur	0f	-tur	0a	-tur
=52	=52	=52	=52	=52	=52	=52	=52
1.F	in-	1.c	in-	1.f	in-	1.a	in-
2F	-i-	2c	-i-	2f	-i-	2a	-i-
=53	=53	=53	=53	=53	=53	=53	=53
1F	-mi-	1A	-mi-	1c	-mi-	1cc	-mi-
1E	-cus	2G	-cus	1e	-cus	1cc	-cus
.	.	[2c	me-	.	.	.	.
=54	=54	=54	=54	=54	=54	=54	=54
0D	me-	2c]	.	0f	me-	0dd	me-
.	.	4B	.	.	.	.	.
.	.	4A	.	.	.	.	.
.	.	1B	.	.	.	.	.
=55	=55	=55	=55	=55	=55	=55	=55
[0C	-us	1c	-us	0e	-us,	[0g	us
.	.	2r	.	.	.	.	.
.	.	[2c	su-	.	.	.	.
=56	=56	=56	=56	=56	=56	=56	=56
0C]	.	2c]	.	1r	.	0g]	.
.	.	4B	.	.	.	.	.
.	.	4A	.	.	.	.	.
.	.	2G	.	1e	me-	.	.
.	.	2c	.	.	.	.	.
=57	=57	=57	=57	=57	=57	=57	=57
0r	.	2.F	-per,	2.f	.	2r	.
.	.	.	.	.	.	1cc	su-
.	.	4G	.	4e	.	.	.
.	.	2A	.	2c	.	.	.
.	.	2B	.	2d	.	4b	.
.	.	.	.	.	.	4a	.
=58	=58	=58	=58	=58	=58	=58	=58
0r	.	1c	.	2e	.	2g	.
.	.	.	.	2A	.	2cc	.
.	.	2r	.	1B-X	.	2.f	-per,
.	.	2d	su-	.	.	.	.
.	.	.	.	.	.	4g	.
=59	=59	=59	=59	=59	=59	=59	=59
0r	.	2c	.	2A	.	2a	.
.	.	2d	.	2G	-us	2b	.
.	.	2A	-per	2r	.	1cc	.
.	.	[2e	me,	[2g	su-	.	.
=60	=60	=60	=60	=60	=60	=60	=60
0r	.	2e]	.	2g]	.	1b	su-
.	.	4d	.	4f	.	.	.
.	.	4c	.	4e	.	.	.
.	.	2B	.	2d	.	1dd	.
.	.	2G	.	2g	.	.	.
=61	=61	=61	=61	=61	=61	=61	=61
0r	.	0A	.	2.c	-per,	1.cc	.
.	.	.	.	4d	.	.	.
.	.	.	.	2e	.	.	.
.	.	.	.	2f	.	4b	.
.	.	.	.	.	.	4a	.
=62	=62	=62	=62	=62	=62	=62	=62
0r	.	1E	.	1.g	.	1b	.
.	.	2r	.	.	.	2e	-per,
.	.	[2G	su-	4f	.	[2b	su-
.	.	.	.	4e	.	.	.
=63	=63	=63	=63	=63	=63	=63	=63
0r	.	2G]	.	1d	.	2b]	.
.	.	4F	.	.	.	4a	.
.	.	4E	.	.	.	4g	.
.	.	2D	.	2r	.	2a	.
.	.	2G	.	2d	su-	2b	.
=64	=64	=64	=64	=64	=64	=64	=64
0r	.	2.C	-per,	2c	.	2.cc	.
.	.	.	.	1e	.	.	.
.	.	4D	.	.	.	4b	.
.	.	2E	.	.	.	2g	.
.	.	2F	.	4d	.	2a	.
.	.	.	.	4c	.	.	.
=65	=65	=65	=65	=65	=65	=65	=65
1r	.	[0G	.	1B	.	1d	.
2r	.	.	.	2E	-per,	[1g	.
[2C	su-	.	.	[2e	su-	.	.
=66	=66	=66	=66	=66	=66	=66	=66
2C]	.	1G]	.	2e]	.	0g]	.
4BB	.	.	.	4d	.	.	.
4AA	.	.	.	4c	.	.	.
2GG	.	2r	.	2d	.	.	.
2C	.	2G	su-	2e	.	.	.
=67	=67	=67	=67	=67	=67	=67	=67
2.FF	-per	2.c	-per	2.f	.	2a	-per,
.	.	.	.	.	.	1cc	su-
4GG	.	4B	.	4e	.	.	.
2AA	.	2A	.	2c	.	.	.
2BB	.	4G	.	2d	-per	4b	.
.	.	4F	.	.	.	4a	.
=68	=68	=68	=68	=68	=68	=68	=68
1C	.	2.E	me?	2.G	me?	2.g	.
.	.	4F	.	4A	.	4f	.
2r	.	2G	.	2B	.	4e	.
.	.	.	.	.	.	4d	.
2AA	me?	2A	.	2c	.	[2f	.
=69	=69	=69	=69	=69	=69	=69	=69
2BB	.	2D	.	2d	.	2f]	.
2C	.	2E	.	4c	.	1e	.
.	.	.	.	4B	.	.	.
2D	.	2F	.	2A	.	.	.
2GG	.	2G	.	2B	.	2d	-per
=70	=70	=70	=70	=70	=70	=70	=70
1C	.	2E	.	2G	.	1e	me?
.	.	2C	.	1c	.	.	.
[1AA	Re-	[1c	Re-	.	.	[1a	Re-
.	.	.	.	4B	.	.	.
.	.	.	.	4A	.	.	.
=71	=71	=71	=71	=71	=71	=71	=71
1AA]	.	1c]	.	1.e	Re-	1a]	.
1AA	-spi-	1c	-spi-	.	.	1a	-spi-
.	.	.	.	2e	-spi-	.	.
=72	=72	=72	=72	=72	=72	=72	=72
0E	-ce,	0B	-ce,	1e	-ce,	0g	-ce,
.	.	.	.	2r	.	.	.
.	.	.	.	[2e	et	.	.
=73	=73	=73	=73	=73	=73	=73	=73
1.A	et	0r	.	4e]	.	0r	.
.	.	.	.	4d	.	.	.
.	.	.	.	4c	.	.	.
.	.	.	.	4B	.	.	.
.	.	.	.	4c	ex-	.	.
.	.	.	.	4A	.	.	.
2G	ex-	.	.	2B	-au-	.	.
=74	=74	=74	=74	=74	=74	=74	=74
1F	-au-	0r	.	2A	-di	0r	.
.	.	.	.	1d	me,	.	.
1E	-di	.	.	.	.	.	.
.	.	.	.	2c#i	.	.	.
=75	=75	=75	=75	=75	=75	=75	=75
1D	me,	1r	.	2d	.	0r	.
.	.	.	.	2.f	Do-	.	.
1D	Do-	[1A	… Do-	.	.	.	.
.	.	.	.	4e	.	.	.
.	.	.	.	4d	-mi-	.	.
.	.	.	.	4c	.	.	.
=76	=76	=76	=76	=76	=76	=76	=76
1D	-mi-	2A]	.	2.d	-ne,	1r	.
.	.	2G	-mi-	.	.	.	.
.	.	.	.	8cL	.	.	.
.	.	.	.	8BJ	.	.	.
1D	-ne,	1F	-ne,	2.A	De-	[1a	… De-
.	.	.	.	4B	.	.	.
=77	=77	=77	=77	=77	=77	=77	=77
1C	De-	1E	De-	2c	-us	1a]	.
.	.	.	.	2.A	me-	.	.
1BB	-us	2D	-us	.	.	1b	-us
.	.	.	.	4G	.	.	.
.	.	[2D	me-	[2G	.	.	.
=78	=78	=78	=78	=78	=78	=78	=78
0AA	me-	2D]	.	2G]	.	0cc	me-
.	.	4C	.	4F#i	.	.	.
.	.	4BB	.	4E	.	.	.
.	.	1C	.	1F#i	.	.	.
=79	=79	=79	=79	=79	=79	=79	=79
[0GG	-us.	1D	-us.	2G	-us.	0b	-us.
.	.	.	.	2d	Il-	.	.
.	.	2r	.	[1d	-lu-	.	.
.	.	2G	Il-	.	.	.	.
=80	=80	=80	=80	=80	=80	=80	=80
1GG]	.	1.G	-lu-	2d]	.	2r	.
.	.	.	.	2B	-mi-	2g	Il-
2r	.	.	.	2B	-na,	[1g	-lu-
2C	Il-	2E	-mi-	2e	il-	.	.
=81	=81	=81	=81	=81	=81	=81	=81
1.C	-lu-	1E	-na	2.e	-lu-	2g]	.
.	.	.	.	.	.	2e	-mi-
.	.	.	.	4c	-mi-	.	.
.	.	[1A	o-	2c	-na,	1e	-na
2AA	-mi-	.	.	2c	il-	.	.
=82	=82	=82	=82	=82	=82	=82	=82
1AA	-na	2A]	.	2.c	-lu-	1.a	o-
.	.	2F	-cu-	.	.	.	.
.	.	.	.	4A	-mi-	.	.
[1D	o-	[1F	-los	2A	-na	.	.
.	.	.	.	[2d	o-	2f	-cu-
=83	=83	=83	=83	=83	=83	=83	=83
2D]	.	1F]	.	2d]	.	2a	-los
2D	-cu-	.	.	2d	-cu-	2b	.
1C	-los	1G	me-	1e	-los	1cc	.
=84	=84	=84	=84	=84	=84	=84	=84
0D	me-	2F	.	0f	me-	0a	me-
.	.	2D	.	.	.	.	.
.	.	1d	.	.	.	.	.
=85	=85	=85	=85	=85	=85	=85	=85
[0E	-os,	[0B	-os,	0e	-os,	0g	-os,
=86	=86	=86	=86	=86	=86	=86	=86
0E]	.	0B]	.	2r	.	2r	.
.	.	.	.	2e	ne	4e	me-
.	.	.	.	.	.	4f	.
.	.	.	.	1e	un-	4g	.
.	.	.	.	.	.	4a	.
.	.	.	.	.	.	4b	.
.	.	.	.	.	.	4g	.
=87	=87	=87	=87	=87	=87	=87	=87
0r	.	0r	.	2d	-quam	4a	.
.	.	.	.	.	.	4b	.
.	.	.	.	2c	ob-	1cc	.
.	.	.	.	2f	-dor-	.	.
.	.	.	.	2f	-mi-	4b	.
.	.	.	.	.	.	4a	.
=88	=88	=88	=88	=88	=88	=88	=88
0r	.	2r	.	2e	.	2g	-os,
.	.	4E	me-	2.g	.	2b	ne
.	.	4F	.	.	.	.	.
.	.	4G	.	.	.	1b	un-
.	.	4A	.	4f	.	.	.
.	.	4B	.	4d	.	.	.
.	.	4G	.	4e	.	.	.
=89	=89	=89	=89	=89	=89	=89	=89
0r	.	4A	.	2f	.	2a	-quam
.	.	4B	.	.	.	.	.
.	.	1c	.	2e	.	2g	ob-
.	.	.	.	1e	-am,	2cc	-dor-
.	.	4B	.	.	.	2cc	-mi-
.	.	4A	.	.	.	.	.
=90	=90	=90	=90	=90	=90	=90	=90
2r	.	1G	-os,	2r	.	1b	-am,
2E	ne	.	.	4E	me-	.	.
.	.	.	.	4F	.	.	.
1E	un-	1r	.	4G	.	2r	.
.	.	.	.	4A	.	.	.
.	.	.	.	4B	.	2g	ob-
.	.	.	.	4G	.	.	.
=91	=91	=91	=91	=91	=91	=91	=91
2D	-quam	0r	.	4A	.	2f	-dor-
.	.	.	.	4B	.	.	.
2C	ob-	.	.	1c	.	2e	.
2F	-dor-	.	.	.	.	1a	.
2F	-mi-	.	.	4B	.	.	.
.	.	.	.	4A	.	.	.
=92	=92	=92	=92	=92	=92	=92	=92
0E	-am	2r	.	2G	-os,	2b	.
.	.	2B	ne	1g	in	4e	.
.	.	.	.	.	.	4d	.
.	.	1B	un-	.	.	4e	.
.	.	.	.	.	.	4f	.
.	.	.	.	2e	.	2g	.
=93	=93	=93	=93	=93	=93	=93	=93
1r	.	2A	-quam	2f	.	2a	.
.	.	2G	ob-	2g	.	1b	.
2r	.	2c	-dor-	4e	mor-	.	.
.	.	.	.	4d	.	.	.
2AA	in	2c	-mi-	4e	.	2a	-mi-
.	.	.	.	4f	.	.	.
=94	=94	=94	=94	=94	=94	=94	=94
4E	mor-	1B	-am	2g	.	1b	-am
4D	.	.	.	.	.	.	.
4E	.	.	.	2e	.	.	.
4F	.	.	.	.	.	.	.
1G	.	2r	.	2d	.	2r	.
.	.	2E	in	[2e	.	[2g	in
=95	=95	=95	=95	=95	=95	=95	=95
1E	.	4B	mor-	1e]	.	4g]	.
.	.	4A	.	.	.	4f	.
.	.	4B	.	.	.	4g	.
.	.	4c	.	.	.	4e	.
1D	-te	1d	.	1A	-te	2f	mor-
.	.	.	.	.	.	[2a	.
=96	=96	=96	=96	=96	=96	=96	=96
1r	.	1B	.	2r	.	2a]	.
.	.	.	.	2d	ne-	2g#i	.
1F	ne-	1A	-te	2d	-quan-	1a	-te
.	.	.	.	2c	-do	.	.
=97	=97	=97	=97	=97	=97	=97	=97
2D	-quan-	0r	.	2f	di-	1r	.
2E	-do	.	.	2e	.	.	.
1F	di-	.	.	4d	.	2r	.
.	.	.	.	4c	.	.	.
.	.	.	.	2d	-cat,	2a	ne-
=98	=98	=98	=98	=98	=98	=98	=98
1C	-cat	1c	ne-	1e	di-	2a	-quan-
.	.	.	.	.	.	2g	-do
1r	.	2A	-quan-	2c	.	2cc	di-
.	.	2B	-do	2d	.	2b	.
=99	=99	=99	=99	=99	=99	=99	=99
1r	.	1c	di-	1e	.	4a	.
.	.	.	.	.	.	4g	.
.	.	.	.	.	.	2a	.
2r	.	1G	-cat	2.E	.	2b	-cat
[2E	in-	.	.	.	.	[2g	in-
.	.	.	.	4F	.	.	.
=100	=100	=100	=100	=100	=100	=100	=100
2E]	.	1r	.	2G	.	2g]	.
2C	-i-	.	.	2A	.	2e	-i-
2D	-mi-	2r	.	2D	-cat	1f	-mi-
2D	-cus	[2B	in-	[2d	in-	.	.
=101	=101	=101	=101	=101	=101	=101	=101
1BB	me-	2B]	.	2d]	.	2d	-cus
.	.	2G	-i-	2B	-i-	2dd	me-
1AA	-us,	2A	-mi-	2c	-mi-	4cc	.
.	.	.	.	.	.	4a	.
.	.	2A	-cus	2A	.	[2cc	.
=102	=102	=102	=102	=102	=102	=102	=102
0r	.	1F	me-	2c	.	4cc]	.
.	.	.	.	.	.	4b	.
.	.	.	.	2d	.	1a	.
.	.	1E	-us,	2B	-cus	.	.
.	.	.	.	[2c	me-	2g	.
=103	=103	=103	=103	=103	=103	=103	=103
2r	.	0r	.	2c]	.	1.a	.
2D	‘Prae-	.	.	2F	.	.	.
2D	-va-	.	.	2A	.	.	.
2D	-lu-	.	.	2B	.	4g	.
.	.	.	.	.	.	4f	.
=104	=104	=104	=104	=104	=104	=104	=104
2C	-i	2r	.	0c	-us,	2e	.
2F	ad-	2A	‘Prae-	.	.	2c	.
2F	-ver-	2A	-va-	.	.	1f	.
2F	-sus	2A	-lu-	.	.	.	.
=105	=105	=105	=105	=105	=105	=105	=105
4E	.	2G	-i	2r	.	1g	-us,
4D	.	.	.	.	.	.	.
4C	.	2c	ad-	2e	‘Prae-	.	.
4BB	.	.	.	.	.	.	.
1C	e-	2c	-ver-	2e	-va-	1r	.
.	.	2c	-sus	2e	-lu-	.	.
=106	=106	=106	=106	=106	=106	=106	=106
0GG	-um,	4B	e-	2d	-i	2r	.
.	.	4A	.	.	.	.	.
.	.	4G	.	2g	ad-	2b	‘Prae-
.	.	4F	.	.	.	.	.
.	.	1G	.	2g	-ver-	2b	-va-
.	.	.	.	2g	-sus	2b	-lu-
=107	=107	=107	=107	=107	=107	=107	=107
0r	.	0D	-um,	4f	e-	2a	-i
.	.	.	.	4e	.	.	.
.	.	.	.	4d	.	2dd	ad-
.	.	.	.	4c	.	.	.
.	.	.	.	1d	.	2dd	-ver-
.	.	.	.	.	.	2dd	-sus
=108	=108	=108	=108	=108	=108	=108	=108
2r	.	1r	.	1A	.	4cc	.
.	.	.	.	.	.	4b	.
2D	ad-	.	.	.	.	4a	.
.	.	.	.	.	.	4g	.
2.F	-ver-	2r	.	2A	.	1a	e-
.	.	2A	ad-	[2c	.	.	.
4G	.	.	.	.	.	.	.
=109	=109	=109	=109	=109	=109	=109	=109
2A	.	2.c	-ver-	4c]	.	2e	.
.	.	.	.	4d	.	.	.
2AA	-sus	.	.	2e	.	1a	.
.	.	4d	.	.	.	.	.
2.C	e-	2e	.	1E	-um.’	.	.
.	.	2E	-sus	.	.	[2g	.
4D	.	.	.	.	.	.	.
=110	=110	=110	=110	=110	=110	=110	=110
2E	.	2G	e-	1r	.	4g]	.
.	.	.	.	.	.	4f	.
2C	.	2A	.	.	.	1e	.
1BB	.	1B	.	1D	Qui	.	.
.	.	.	.	.	.	2d	.
=111	=111	=111	=111	=111	=111	=111	=111
0AA	-um.’	[0E	-um.’	1.A	tri-	[0e	-um.’
.	.	.	.	2A	-bu-	.	.
=112	=112	=112	=112	=112	=112	=112	=112
1r	.	0E]	.	1G	-lant	0e]	.
1AA	Qui	.	.	1c	me	.	.
=113	=113	=113	=113	=113	=113	=113	=113
1.E	tri-	0r	.	2B	e-	0r	.
.	.	.	.	2G	-xul-	.	.
.	.	.	.	2B	-ta-	.	.
2E	-bu-	.	.	2c	.	.	.
=114	=114	=114	=114	=114	=114	=114	=114
1D	-lant	0r	.	2d	.	0r	.
.	.	.	.	2f	.	.	.
1G	me	.	.	2e	.	.	.
.	.	.	.	[2d	.	.	.
=115	=115	=115	=115	=115	=115	=115	=115
2F	e-	0r	.	2d]	.	0r	.
2D	-xul-	.	.	1f	.	.	.
2F	-ta-	.	.	.	.	.	.
2G	.	.	.	4e	.	.	.
.	.	.	.	4d	.	.	.
=116	=116	=116	=116	=116	=116	=116	=116
1.A	.	0r	.	2.c	.	0r	.
.	.	.	.	4d	.	.	.
.	.	.	.	2e	.	.	.
2D	.	.	.	[2f	.	.	.
=117	=117	=117	=117	=117	=117	=117	=117
2A	.	0r	.	2f]	.	0r	.
2B	.	.	.	2d	.	.	.
2.c	.	.	.	2e	.	.	.
.	.	.	.	2g	.	.	.
4B	.	.	.	.	.	.	.
=118	=118	=118	=118	=118	=118	=118	=118
2A	.	1r	.	2f	.	0r	.
2G	.	.	.	1e	.	.	.
1F	.	2r	.	.	.	.	.
.	.	2D	Qui	2d	.	.	.
=119	=119	=119	=119	=119	=119	=119	=119
2.c	.	2A	tri-	1e	-bunt,	0r	.
.	.	2A	-bu-	.	.	.	.
4C	.	.	.	.	.	.	.
1C	-bunt,	2G	-lant	2r	.	.	.
.	.	2c	me	2e	e-	.	.
=120	=120	=120	=120	=120	=120	=120	=120
2r	.	2B	e-	2.d	-xul-	0r	.
1D	e-	2A	-xul-	.	.	.	.
.	.	.	.	4c	.	.	.
.	.	4B	-ta-	2d	-ta-	.	.
.	.	4A	.	.	.	.	.
2GG	-xul-	[2d	.	2B	.	.	.
=121	=121	=121	=121	=121	=121	=121	=121
2D	-ta-	2d]	.	2A	.	0r	.
2E	.	4c	.	2G	.	.	.
.	.	4B	.	.	.	.	.
2.F	.	2A	.	2c	.	.	.
.	.	2c	.	2A	.	.	.
4E	.	.	.	.	.	.	.
=122	=122	=122	=122	=122	=122	=122	=122
2D	.	2B	.	2B	.	0r	.
2C	.	1A	.	2c	.	.	.
1BB-X	.	.	.	1d	.	.	.
.	.	2G	.	.	.	.	.
=123	=123	=123	=123	=123	=123	=123	=123
*	*	*	*	*	*	*M3/3%2	*
*	*	*	*	*	*	*met(3)	*
*	*	*	*	*	*	*Xtuplet	*
2.F	.	0A	-bunt	1c	.	3%2r	.
.	.	.	.	.	.	3%2r	.
4FF	.	.	.	.	.	.	.
1FF	-bunt	.	.	1f	.	.	.
.	.	.	.	.	.	3%2a	… si
=124	=124	=124	=124	=124	=124	=124	=124
*	*	*	*	*M3/3%2	*	*	*
*	*	*	*	*met(3)	*	*	*
*	*	*	*	*Xtuplet	*	*	*
0r	.	0r	.	3%2e	-bunt	3%4cc	mo-
.	.	.	.	3%2e	si	.	.
.	.	.	.	[3%2g	mo-	[3%2b	-tus
=125	=125	=125	=125	=125	=125	=125	=125
*	*	*M3/3%2	*	*	*	*	*
*	*	*met(3)	*	*	*	*	*
*	*	*Xtuplet	*	*	*	*	*
0r	.	3%2r	.	3%2g]	.	3%2b]	.
.	.	3%2r	.	3%4f	-tus	3%2a	fu-
.	.	3%2A	si	.	.	3%2a	-e-
=126	=126	=126	=126	=126	=126	=126	=126
0r	.	3%4c	mo-	3%2e	fu-	3%2g	-ro,
.	.	.	.	3%2e	-e-	3%2a	.
.	.	[3%2B	-tus	[3%2d	-ro,	3%2b	.
=127	=127	=127	=127	=127	=127	=127	=127
*M3/3%2	*	*	*	*	*	*	*
*met(3)	*	*	*	*	*	*	*
*Xtuplet	*	*	*	*	*	*	*
3%2r	.	3%2B]	.	3d]	.	3%2g	si
.	.	.	.	3e	.	.	.
3%2r	.	3%2A	fu-	3f	.	3%2a	.
.	.	.	.	3%2g	si	.	.
3%2AA	si	3%2A	-e-	.	.	[3%2cc	mo-
.	.	.	.	3f	.	.	.
=128	=128	=128	=128	=128	=128	=128	=128
0C	mo-	[0.G	-ro,	1.e	mo-	2cc]	.
.	.	.	.	.	.	2b	.
.	.	.	.	.	.	2g	.
.	.	.	.	2c	.	2a	.
[1BB	-tus	.	.	1d	-tus	2b	.
.	.	.	.	.	.	2cc	.
=129	=129	=129	=129	=129	=129	=129	=129
1BB]	.	1G]	.	0G	fu-	2dd	.
.	.	.	.	.	.	2b	.
1AA	fu-	0A	.	.	.	1.cc	-tus
1AA	-e-	.	.	1F#i	-e-	.	.
.	.	.	.	.	.	2a	.
=130	=130	=130	=130	=130	=130	=130	=130
*M2/1	*	*M2/1	*	*M2/1	*	*M2/1	*
*met(C|)	*	*met(C|)	*	*met(C|)	*	*met(C|)	*
0GG	-ro,	0D	.	[0G	-ro,	[0b	fu-
=131	=131	=131	=131	=131	=131	=131	=131
1r	.	1r	.	0G]	.	1b]	.
[1C	e-	[1E	e-	.	.	1g	-e-
=132	=132	=132	=132	=132	=132	=132	=132
1C]	.	1E]	.	1r	.	0g	-ro,
1BB	-go	1D	-go	[1B	e-	.	.
=133	=133	=133	=133	=133	=133	=133	=133
1GG	au-	1E	au-	1B]	.	1r	.
1AA	.	1F	.	1A	-go	2r	.
.	.	.	.	.	.	2cc	e-
=134	=134	=134	=134	=134	=134	=134	=134
0E	.	0G	-tem	1B	au-	4b	-go
.	.	.	.	.	.	4a	.
.	.	.	.	.	.	4g	.
.	.	.	.	.	.	4f	.
.	.	.	.	1c	.	4e	.
.	.	.	.	.	.	4d	.
.	.	.	.	.	.	[2g	.
=135	=135	=135	=135	=135	=135	=135	=135
1D	-tem	1r	.	0d	-tem	2g]	.
.	.	.	.	.	.	2f#i	.
[1GG	in	[1G	in	.	.	1g	au-
=136	=136	=136	=136	=136	=136	=136	=136
1GG]	.	1G]	.	1r	.	1g	-tem
1GG	mi-	1G	mi-	[1d	in	2r	.
.	.	.	.	.	.	[2b	in
=137	=137	=137	=137	=137	=137	=137	=137
1GG	-se-	1G	-se-	1d]	.	2b]	.
.	.	.	.	.	.	2b	mi-
1GG	-ri-	1G	-ri-	1d	mi-	2b	-se-
.	.	.	.	.	.	2b	-ri-
=138	=138	=138	=138	=138	=138	=138	=138
1D	-cor-	1F	-cor-	1d	-se-	1a	-cor-
1BB	-di-	1G	-di-	1d	-ri-	1b	-di-
=139	=139	=139	=139	=139	=139	=139	=139
1AA	-a	0A	-a	1c	-cor-	1cc	-a
1D	tu-	.	.	1d	-di-	2r	.
.	.	.	.	.	.	[2a	tu-
=140	=140	=140	=140	=140	=140	=140	=140
1C	-a	1r	.	0e	-a	2a]	.
.	.	.	.	.	.	2g	-a
1AA	spe-	1A	tu-	.	.	2a	spe-
.	.	.	.	.	.	2cc	.
=141	=141	=141	=141	=141	=141	=141	=141
1BB	-ra-	1D	-a	1r	.	2b	.
.	.	.	.	.	.	1g	-ra-
1C	.	1G	spe-	1e	tu-	.	.
.	.	.	.	.	.	4f	.
.	.	.	.	.	.	4e	.
=142	=142	=142	=142	=142	=142	=142	=142
0D	.	0F	-ra-	1A	-a	2d	.
.	.	.	.	.	.	2.f	.
.	.	.	.	1d	spe-	.	.
.	.	.	.	.	.	4g	.
.	.	.	.	.	.	4a	.
.	.	.	.	.	.	4b	.
=143	=143	=143	=143	=143	=143	=143	=143
0AA	.	[0El	-vi.	0c	-ra-	4cc	.
.	.	.	.	.	.	4a	.
.	.	.	.	.	.	1cc	.
.	.	.	.	.	.	4b	.
.	.	.	.	.	.	4a	.
=144	=144	=144	=144	=144	=144	=144	=144
[0El	-vi.	0E_	.	[0Bl	-vi.	2g	.
.	.	.	.	.	.	1a	.
.	.	.	.	.	.	2g	.
=145	=145	=145	=145	=145	=145	=145	=145
00E]	.	00E]	.	00B]	.	00g	.
=146||	=146||	=146||	=146||	=146||	=146||	=146||	=146||
*M2/1	*	*M2/1	*	*M2/1	*	*M2/1	*
*met(C|)	*	*met(C|)	*	*met(C|)	*	*met(C|)	*
!!section: Secunda pars: Exultabit cor meum
!!!OMD: Secunda pars: Exultabit cor meum
0r	.	0r	.	0r	.	1e	-E-
.	.	.	.	.	.	2e	-xul-
.	.	.	.	.	.	[2g	-ta-
=147	=147	=147	=147	=147	=147	=147	=147
0r	.	0r	.	0r	.	4g]	.
.	.	.	.	.	.	4a	.
.	.	.	.	.	.	4b	.
.	.	.	.	.	.	4g	.
.	.	.	.	.	.	2cc	.
.	.	.	.	.	.	2b	-bit
=148	=148	=148	=148	=148	=148	=148	=148
0r	.	0r	.	1A	E-	2a	cor
.	.	.	.	.	.	2.cc	me-
.	.	.	.	2A	-xul-	.	.
.	.	.	.	.	.	4b	.
.	.	.	.	[2c	-ta-	2a	.
=149	=149	=149	=149	=149	=149	=149	=149
0r	.	0r	.	4c]	.	1g	-um
.	.	.	.	4d	.	.	.
.	.	.	.	4e	.	.	.
.	.	.	.	4c	.	.	.
.	.	.	.	2f	.	1r	.
.	.	.	.	2e	-bit	.	.
=150	=150	=150	=150	=150	=150	=150	=150
0r	.	0r	.	2d	cor	2r	.
.	.	.	.	2.f	me-	2cc	in
.	.	.	.	.	.	2a	sa-
.	.	.	.	4e	.	.	.
.	.	.	.	2d	.	2b	-lu-
=151	=151	=151	=151	=151	=151	=151	=151
0r	.	0r	.	2c	-um	2cc	-ta-
.	.	.	.	2f	in	2a	-ri
.	.	.	.	2d	sa-	1b	tu-
.	.	.	.	2e	-lu-	.	.
=152	=152	=152	=152	=152	=152	=152	=152
0r	.	0r	.	2f	-ta-	2a	-o,
.	.	.	.	2d	-ri	2dd	in
.	.	.	.	1e	tu-	2b	sa-
.	.	.	.	.	.	2cc	-lu-
=153	=153	=153	=153	=153	=153	=153	=153
0r	.	0r	.	1d	-o,	2dd	-ta-
.	.	.	.	.	.	2b	-ri
.	.	.	.	2r	.	2cc	tu-
.	.	.	.	2g	in	2b	-o,
=154	=154	=154	=154	=154	=154	=154	=154
0r	.	1r	.	2e	sa-	2r	.
.	.	.	.	2f	-lu-	2a	in
.	.	2r	.	2g	-ta-	2b	.
.	.	2c	… in	2e	-ri	[2cc	sa-
=155	=155	=155	=155	=155	=155	=155	=155
1r	.	2A	sa-	1f	tu-	2cc]	.
.	.	2B	-lu-	.	.	4b	.
.	.	.	.	.	.	4a	.
2r	.	2c	-ta-	2e	-o,	2g	.
2F	… in	2A	-ri	2c	.	[2a	-lu-
=156	=156	=156	=156	=156	=156	=156	=156
2D	sa-	1B	tu-	2d	.	2a]	.
2E	-lu-	.	.	2G	.	1g	-ta-
2F	-ta-	1A	-o,	2r	.	.	.
2D	-ri	.	.	2d	in	2f	.
=157	=157	=157	=157	=157	=157	=157	=157
1E	tu-	0r	.	2B	sa-	2g	-ri
.	.	.	.	2c	-lu-	2e	tu-
2D	-o,	.	.	2d	-ta-	2f	.
2G	in	.	.	2B	-ri	[2g	.
=158	=158	=158	=158	=158	=158	=158	=158
2E	sa-	2c	in	2e	tu-	2g]	.
2F	-lu-	2A	sa-	4c	.	2a	.
.	.	.	.	4d	.	.	.
2G	-ta-	2B	-lu-	4e	.	2g	.
.	.	.	.	4d	.	.	.
2E	-ri	2c	-ta-	2g	.	[2cc	.
=159	=159	=159	=159	=159	=159	=159	=159
1F	tu-	1A	-ri	2c	.	4cc]	.
.	.	.	.	.	.	4b	.
.	.	.	.	2d	.	1a	.
1E	-o,	1B	tu-	1e	-o,	.	.
.	.	.	.	.	.	2g#i	.
=160	=160	=160	=160	=160	=160	=160	=160
2r	.	1A	-o,	2c	in	2a	-o,
2F	in	.	.	2A	sa-	2cc	in
2D	sa-	1r	.	2B	-lu-	2b	sa-
2E	-lu-	.	.	2c	-ta-	2g	-lu-
=161	=161	=161	=161	=161	=161	=161	=161
2F	-ta-	2r	.	1A	-ri	2a	-ta-
2D	-ri	2d	in	.	.	2f	.
1E	tu-	2B	sa-	2r	.	2g	.
.	.	2c	-lu-	2G	tu-	2e	.
=162	=162	=162	=162	=162	=162	=162	=162
1D	-o,	2d	-ta-	2A	.	1f	.
.	.	2B	-ri	2d	.	.	.
1r	.	1c	tu-	1e	.	2e	.
.	.	.	.	.	.	[2a	.
=163	=163	=163	=163	=163	=163	=163	=163
2r	.	1B	-o,	2d	.	2a]	.
2E	in	.	.	2G	.	1g	.
2C	sa-	1r	.	1A	-o,	.	.
2D	-lu-	.	.	.	.	2f	.
=164	=164	=164	=164	=164	=164	=164	=164
2E	-ta-	2r	.	2G	.	2g	.
2C	-ri	2c	in	2E	.	1a	.
1D	tu-	2A	sa-	1F	.	.	.
.	.	2B	-lu-	.	.	4g	.
.	.	.	.	.	.	4f	.
=165	=165	=165	=165	=165	=165	=165	=165
1C	-o,	2c	-ta-	2r	.	2e	-ri
.	.	2A	-ri	2c	in	1a	tu-
1r	.	1B	tu-	1d	sa-	.	.
.	.	.	.	.	.	2g	-o,
=166	=166	=166	=166	=166	=166	=166	=166
2r	.	1A	-o,	2D	-lu-	2r	.
2D	in	.	.	1d	-ta-	2a	in
2BB	sa-	1r	.	.	.	2d	sa-
2C	-lu-	.	.	4c	.	2e	-lu-
.	.	.	.	4B	.	.	.
=167	=167	=167	=167	=167	=167	=167	=167
2D	-ta-	1r	.	2A	.	2f	-ta-
2BB	-ri	.	.	1d	.	2g	-ri
1C	tu-	2r	.	.	.	1e	tu-
.	.	2A	in	2c	.	.	.
=168	=168	=168	=168	=168	=168	=168	=168
2BB	-o,	2D	sa-	2d	.	2d	-o,
2C	in	2E	-lu-	2G	.	2g	in
2AA	sa-	2F	-ta-	2A	.	2f	sa-
2BB	-lu-	2G	-ri	[2G	-ri	2d	-lu-
=169	=169	=169	=169	=169	=169	=169	=169
2C	-ta-	1E	tu-	2G]	.	4e	-ta-
.	.	.	.	.	.	4d	.
2AA	-ri	.	.	2c	tu-	4e	-ri
.	.	.	.	.	.	4f	.
1BB	tu-	1D	-o.	1d	.	1g	tu-
=170	=170	=170	=170	=170	=170	=170	=170
1AA	-o.	1A	.	2e	-o.	1c	-o.
.	.	.	.	2c	Can-	.	.
1GG	Can-	1B	Can-	2d	.	1g	Can-
.	.	.	.	2e	.	.	.
=171	=171	=171	=171	=171	=171	=171	=171
0FF	-ta-	0c	-ta-	0f	-ta-	0a	-ta-
=172	=172	=172	=172	=172	=172	=172	=172
0GG	-bo,	0B	-bo	0d	-bo	0g	-bo
=173	=173	=173	=173	=173	=173	=173	=173
0r	.	2.E	Do-	2.e	Do-	2.g	Do-
.	.	4F	.	4d	.	4f	.
.	.	2G	.	2B	.	4e	.
.	.	.	.	.	.	4d	.
.	.	[2A	.	[2c	.	[2f	.
=174	=174	=174	=174	=174	=174	=174	=174
0r	.	2A]	.	2c]	.	2f]	.
.	.	2G	.	1B	.	1e	.
.	.	1F	.	.	.	.	.
.	.	.	.	[2A	.	2d	-mi-
=175	=175	=175	=175	=175	=175	=175	=175
0r	.	2E	.	2A]	.	0e	-no,
.	.	2B	.	2G	.	.	.
.	.	2c	.	1A	-mi-	.	.
.	.	[2A	-mi-	.	.	.	.
=176	=176	=176	=176	=176	=176	=176	=176
1r	.	2A]	.	1E	-no,	1r	.
.	.	2G	-no,	.	.	.	.
1BB	can-	1B	can-	1d	can-	1g	can-
=177	=177	=177	=177	=177	=177	=177	=177
2.AA	-ta-	0c	-ta-	0e	-ta-	1a	-ta-
4BB	.	.	.	.	.	.	.
4C	.	.	.	.	.	2g	-bo
4D	.	.	.	.	.	.	.
4E	.	.	.	.	.	[2g	Do-
4F	.	.	.	.	.	.	.
=178	=178	=178	=178	=178	=178	=178	=178
1.G	.	1B	-bo	0d	-bo	2g]	.
.	.	.	.	.	.	4f	.
.	.	.	.	.	.	4e	.
.	.	2r	.	.	.	4d	.
.	.	.	.	.	.	4c	.
2GG	.	[2G	Do-	.	.	4B	.
.	.	.	.	.	.	4A	.
=179	=179	=179	=179	=179	=179	=179	=179
1GG	-bo	2G]	.	2.d	Do-	2.B	.
.	.	4F	.	.	.	.	.
.	.	4E	.	4c	.	4c	.
2r	.	2D	.	4B	.	4d	.
.	.	.	.	4A	.	4e	.
[2FF	Do-	[2A	.	[2c	.	[2f	.
=180	=180	=180	=180	=180	=180	=180	=180
2FF]	.	2A]	.	2c]	.	2f]	.
2GG	.	1G	.	1B	.	2e	-mi-
2D	.	.	.	.	.	[1d	-no,
2D	-mi-	2F	-mi-	2A	-mi-	.	.
=181	=181	=181	=181	=181	=181	=181	=181
1GG	-no,	1G	-no,	1B	-no,	1d]	.
1C	can-	1G	can-	1c	can-	1e	can-
=182	=182	=182	=182	=182	=182	=182	=182
1AA	-ta-	0A	-ta-	0c	-ta-	1e	-ta-
1FF	.	.	.	.	.	1f	.
=183	=183	=183	=183	=183	=183	=183	=183
0C	-bo	0G	-bo	1c	-bo	1e	-bo
.	.	.	.	1e	Do-	2r	.
.	.	.	.	.	.	[2g	Do-
=184	=184	=184	=184	=184	=184	=184	=184
1r	.	2.G	Do-	4d	.	4g]	.
.	.	.	.	4c	.	4f	.
.	.	.	.	4B	.	4e	.
.	.	4F	.	4A	.	4d	.
2r	.	4E	.	2G	.	2e	.
.	.	4D	.	.	.	.	.
[2D	Do-	[2F	.	2A	.	[2d	.
=185	=185	=185	=185	=185	=185	=185	=185
4D]	.	2F]	.	2B	.	2d]	.
4C	.	.	.	.	.	.	.
2AA	.	1E	.	1A	.	2c	-mi-
2BB	.	.	.	.	.	1d	-no,
2BB	-mi-	2D	-mi-	2G#i	-mi-	.	.
=186	=186	=186	=186	=186	=186	=186	=186
1AA	-no,	0E	-no,	1A	-no,	2c	.
.	.	.	.	.	.	2cc	can-
1G	can-	.	.	1B	can-	2b	-ta-
.	.	.	.	.	.	[2g	.
=187	=187	=187	=187	=187	=187	=187	=187
0A	-ta-	1r	.	1c	-ta-	2g]	.
.	.	.	.	.	.	4f#i	.
.	.	.	.	.	.	4e	.
.	.	1D	can-	1d	.	1f#i	.
=188	=188	=188	=188	=188	=188	=188	=188
0G	-bo	2.E	-ta-	2B	-bo	1g	-bo
.	.	.	.	2e	Do-	.	.
.	.	4F	.	.	.	.	.
.	.	4G	.	2.d	.	2r	.
.	.	4A	.	.	.	.	.
.	.	4B	.	.	.	[2dd	Do-
.	.	4c	.	4c	.	.	.
=189	=189	=189	=189	=189	=189	=189	=189
2.G	Do-	1d	.	4B	.	4dd]	.
.	.	.	.	4A	.	4cc	.
.	.	.	.	2B	.	4b	.
4F	.	.	.	.	.	4a	.
4E	.	2G	-bo	2e	.	2b	.
4D	.	.	.	.	.	.	.
[2F	.	2c	Do-	4A	.	[2a	.
.	.	.	.	4B	.	.	.
=190	=190	=190	=190	=190	=190	=190	=190
2F]	.	2A	.	4c	.	2a]	.
.	.	.	.	4d	.	.	.
1E	.	2B	.	1e	-mi-	2g	.
.	.	2c	.	.	.	2e	.
2D	-mi-	2d	.	2f	-no,	[2a	.
=191	=191	=191	=191	=191	=191	=191	=191
1E	-no,	1B	-mi-	2e	.	2a]	.
.	.	.	.	2E	.	2g#i	-mi-
1AA	qui	1A	-no,	2F	.	1a	-no,
.	.	.	.	[2E	.	.	.
=192	=192	=192	=192	=192	=192	=192	=192
0C	bo-	2r	.	2E]	.	1e	qui
.	.	2G	qui	4D	.	.	.
.	.	.	.	4C	.	.	.
.	.	1G	bo-	1c	qui	1e	bo-
=193	=193	=193	=193	=193	=193	=193	=193
1C	-na	2G	-na	2c	bo-	1e	-na
.	.	2.A	tri-	2c	-na	.	.
[1D	tri-	.	.	[1A	tri-	[1f	tri-
.	.	4G	.	.	.	.	.
.	.	4F	.	.	.	.	.
.	.	4E	.	.	.	.	.
=194	=194	=194	=194	=194	=194	=194	=194
1D]	.	2F	-bu-	2A]	.	1f]	.
.	.	2F	-it	2B	-bu-	.	.
1C	-bu-	[1G	mi-	1c	-it	1e	-bu-
=195	=195	=195	=195	=195	=195	=195	=195
0C	-it	0G]	.	2r	.	2e	-it
.	.	.	.	2.e	mi-	2.g	mi-
.	.	.	.	4d	.	4f	.
.	.	.	.	4c	.	[2e	.
.	.	.	.	4B	.	.	.
=196	=196	=196	=196	=196	=196	=196	=196
0F	mi-	1A	.	4c	.	2e]	.
.	.	.	.	4B	.	.	.
.	.	.	.	4A	.	4d	.
.	.	.	.	4G	.	4c	.
.	.	1D	.	1A	.	1d	.
=197	=197	=197	=197	=197	=197	=197	=197
0E	-hi,	0G	-hi,	1B	-hi,	1e	-hi,
.	.	.	.	2r	.	2r	.
.	.	.	.	2c	et	2g	et
=198	=198	=198	=198	=198	=198	=198	=198
0r	.	0r	.	2d	psal-	2f	psal-
.	.	.	.	2d	-lam	2.a	-lam,
.	.	.	.	1f	no-	.	.
.	.	.	.	.	.	4b	.
.	.	.	.	.	.	4cc	.
.	.	.	.	.	.	4b	.
=199	=199	=199	=199	=199	=199	=199	=199
2r	.	0r	.	2e	-mi-	4cc	.
.	.	.	.	.	.	4b	.
2C	et	.	.	2e	-ni	4a	.
.	.	.	.	.	.	4g	.
2D	psal-	.	.	2.d	Do-	4f	.
.	.	.	.	.	.	4d	.
2D	-lam	.	.	.	.	[2f	.
.	.	.	.	4d	-mi-	.	.
=200	=200	=200	=200	=200	=200	=200	=200
1F	no-	0r	.	2.A	-ni,	4f]	.
.	.	.	.	.	.	4e	.
.	.	.	.	.	.	2c	.
.	.	.	.	4B	.	.	.
2E	-mi-	.	.	4c	.	2r	.
.	.	.	.	4B	.	.	.
2E	-ni	.	.	2c	.	2g	et
=201	=201	=201	=201	=201	=201	=201	=201
2.D	Do-	0r	.	2F	.	2a	psal-
.	.	.	.	2f	Do-	2a	-lam
4D	-mi-	.	.	.	.	.	.
1AA	-ni,	.	.	2.e	-mi-	1cc	no-
.	.	.	.	4f	.	.	.
=202	=202	=202	=202	=202	=202	=202	=202
0r	.	2r	.	4g	.	2b	-mi-
.	.	.	.	4f	.	.	.
.	.	2G	et	2g	.	2b	-ni
.	.	2A	psal-	2c	.	2.a	Do-
.	.	2A	-lam	[2e	-ni,	.	.
.	.	.	.	.	.	4a	-mi-
=203	=203	=203	=203	=203	=203	=203	=203
0r	.	1c	no-	4e]	.	1e	-ni,
.	.	.	.	4f	.	.	.
.	.	.	.	4g	.	.	.
.	.	.	.	4f	.	.	.
.	.	2B	-mi-	4g	.	2d	.
.	.	.	.	4f	.	.	.
.	.	2B	-ni	4e	.	2g	.
.	.	.	.	4d	.	.	.
=204	=204	=204	=204	=204	=204	=204	=204
0r	.	2.A	Do-	4c	.	2e	.
.	.	.	.	4A	.	.	.
.	.	.	.	2.c	Do-	2f	.
.	.	4A	-mi-	.	.	.	.
.	.	1E	-ni,	.	.	2g	.
.	.	.	.	4B	.	.	.
.	.	.	.	2G	.	[2e	Do-
=205	=205	=205	=205	=205	=205	=205	=205
0r	.	2r	.	2A	.	2e]	.
.	.	1E	no-	2B	.	4d	.
.	.	.	.	.	.	4c	.
.	.	.	.	2G	.	[1g	.
.	.	4D	-mi-	[2c	.	.	.
.	.	4C	.	.	.	.	.
=206	=206	=206	=206	=206	=206	=206	=206
1r	.	1G	-ni	2c]	.	1g]	.
.	.	.	.	2B	-mi-	.	.
2r	.	[1A	Do-	[1c	-ni,	1e	-mi-
[2AA	Do-	.	.	.	.	.	.
=207	=207	=207	=207	=207	=207	=207	=207
2AA]	.	1A]	.	0c]	.	1f	.
4GG	.	.	.	.	.	.	.
4FF	.	.	.	.	.	.	.
1C	-mi-	1G	.	.	.	[1e	.
=208	=208	=208	=208	=208	=208	=208	=208
0D	-ni,	0F	-mi-	2r	.	2e]	.
.	.	.	.	1A	Do-	4d	.
.	.	.	.	.	.	4c	.
.	.	.	.	.	.	1d	.
.	.	.	.	4G	-mi-	.	.
.	.	.	.	4F	.	.	.
=209	=209	=209	=209	=209	=209	=209	=209
2.AA	Do-	2E	-ni,	1c	-ni,	1e	-ni,
.	.	2A	et	.	.	.	.
4BB	.	.	.	.	.	.	.
2C	.	2G	psal-	2c	et	2r	.
2GG	.	2B	-lam	2d	psal-	2g	et
=210	=210	=210	=210	=210	=210	=210	=210
1D	.	1A	no-	2d	-lam	2a	psal-
.	.	.	.	1f	no-	2a	-lam
4AA	.	1A	-mi-	.	.	1cc	no-
4BB	.	.	.	.	.	.	.
4C	.	.	.	2e	-mi-	.	.
4D	.	.	.	.	.	.	.
=211	=211	=211	=211	=211	=211	=211	=211
4E	.	1G	-ni	2e	-ni	2b	-mi-
4F	.	.	.	.	.	.	.
2G	-mi-	.	.	2.d	Do-	2b	-ni
1D	-ni,	2r	.	.	.	2.a	Do-
.	.	.	.	4d	-mi-	.	.
.	.	[2d	Do-	2A	-ni,	.	.
.	.	.	.	.	.	4a	-mi-
=212	=212	=212	=212	=212	=212	=212	=212
2r	.	4d]	.	2r	.	1e	-ni,
.	.	4c#i	.	.	.	.	.
2A	Do-	4c#i	-mi-	2A	Al-	.	.
.	.	4B	.	.	.	.	.
2D	.	1d	-ni,	2A	-tis-	1f	Al-
2F	-mi-	.	.	2A	-si-	.	.
=213	=213	=213	=213	=213	=213	=213	=213
1E	-ni,	2G	no-	0e	-mi,	1g	-tis-
.	.	2B	.	.	.	.	.
2r	.	2A	.	.	.	[1a	-si-
[2AA	Do-	[2c	-mi-	.	.	.	.
=214	=214	=214	=214	=214	=214	=214	=214
2AA]	.	2c]	.	1f	.	1a]	.
4GG	-mi-	4B	.	.	.	.	.
4FF	.	4A	.	.	.	.	.
1C	-ni,	2G	-ni	[1g	.	1e	.
.	.	[2E	Do-	.	.	.	.
=215	=215	=215	=215	=215	=215	=215	=215
2r	.	2E]	.	1g]	.	0e	-mi,
1E	Al-	4D	.	.	.	.	.
.	.	4C	.	.	.	.	.
.	.	2G	.	1c	Al-	.	.
4D	.	2A	.	.	.	.	.
4C	.	.	.	.	.	.	.
=216	=216	=216	=216	=216	=216	=216	=216
1.G	-tis-	2B	.	1d	.	1r	.
.	.	2B	-mi-	.	.	.	.
.	.	1E	-ni,	[1e	-tis-	2r	.
2E	-si-	.	.	.	.	[2b	Al-
=217	=217	=217	=217	=217	=217	=217	=217
1E	-mi,	2r	.	1e]	.	2b]	.
.	.	1B	Do-	.	.	4a	.
.	.	.	.	.	.	4g	.
2r	.	.	.	1B	-si-	2dd	-tis-
2E	Al-	4A	-mi-	.	.	2b	-si-
.	.	4G	.	.	.	.	.
=218	=218	=218	=218	=218	=218	=218	=218
2D	.	1d	-ni,	0B	-mi,	2b	-mi,
1BB	.	.	.	.	.	1dd	Do-
.	.	1D	.	.	.	.	.
4AA	.	.	.	.	.	4cc	-mi-
4GG	.	.	.	.	.	4b	.
=219	=219	=219	=219	=219	=219	=219	=219
2D	.	1r	.	2r	.	2.a	-ni,
1AA	.	.	.	1c	Do-	.	.
.	.	.	.	.	.	4g	.
.	.	1F	Al-	.	.	1a	.
4GG	.	.	.	4B	mi-	.	.
4FF	.	.	.	4A	.	.	.
=220	=220	=220	=220	=220	=220	=220	=220
1.C	-tis-	1G	.	1e	-ni,	1g	.
.	.	[1A	-tis-	2r	.	2c	Al-
2AA	-si-	.	.	[2c	Al-	[2e	-tis-
=221	=221	=221	=221	=221	=221	=221	=221
1AA	-mi,	1A]	.	2c]	.	2e]	.
.	.	.	.	4B	.	4d	.
.	.	.	.	4A	.	4c	.
1r	.	1E	-si-	2.e	-tis-	[1g	-si-
.	.	.	.	4B	-si-	.	.
=222	=222	=222	=222	=222	=222	=222	=222
2r	.	0E	-mi,	2B	-mi,	2g]	.
1C	Al-	.	.	2c	.	2e	.
.	.	.	.	2G	.	2.e	-mi,
4BB	.	.	.	2c	.	.	.
4AA	.	.	.	.	.	4f	.
=223	=223	=223	=223	=223	=223	=223	=223
2E	.	2r	.	2B	.	2g	.
1F	.	1A	Al-	2A	.	2c	.
.	.	.	.	1d	.	1f	.
4E	.	4G	.	.	.	.	.
4D	.	4F	.	.	.	.	.
=224	=224	=224	=224	=224	=224	=224	=224
2A	-tis-	1.c	-tis-	1e	.	2r	.
1AA	-si-	.	.	.	.	2e	Al-
.	.	.	.	1r	.	2c	-tis-
4GG	.	4B	.	.	.	2d	.
4FF	.	4A	.	.	.	.	.
=225	=225	=225	=225	=225	=225	=225	=225
1C	-mi,	1G	-si-	1r	.	2e	.
.	.	.	.	.	.	2g	.
1AA	.	1A	.	1c	Al-	2f	.
.	.	.	.	.	.	[2e	.
=226	=226	=226	=226	=226	=226	=226	=226
1D	Al-	0F	.	0A	-tis-	2e]	.
.	.	.	.	.	.	4d	.
.	.	.	.	.	.	4c	.
1FF	-tis-	.	.	.	.	1d	-si-
=227	=227	=227	=227	=227	=227	=227	=227
1GG	.	[0El	-mi.	1B	.	[0el	-mi.
[1AA	.	.	.	[1c	.	.	.
=228	=228	=228	=228	=228	=228	=228	=228
1AA]	.	0E_	.	1c]	.	0e_	.
1EE	-si-	.	.	1B	-si-	.	.
=229	=229	=229	=229	=229	=229	=229	=229
00EEl	-mi.	00E]	.	00Bl	-mi.	00e]	.
==	==	==	==	==	==	==	==
*-	*-	*-	*-	*-	*-	*-	*-
!!!system-decoration: [*]
!!!RDF**kern: i = editorial accidental
!!!RDF**kern: l = terminal long
!!!ENC: Benjamin Ory
!!!END: 2025/3/7
!!!EED: Benjamin Ory
!!!EEV: 2025/03/07
!!!YEC: Copyright 2025 Benjamin Ory, All Rights Reserved
!!!ONB: Translated from MusicXML on 2025/03/07